!!!COM:	Bach, Johann Sebastian
!!!OMV:	Nun ruhen alle W&auml;lder
!!!OTL:	Nun ruhen alle W&auml;lder
**kern	**fb	**kern	**kern	**kern	**kern
*part5	*part5	*part4	*part3	*part2	*part1
*staff5	*	*staff4	*staff3	*staff2	*staff1
*I"Continuo	*	*I"Voice	*I"Voice	*I"Voice	*I"Voice
*I'Cont.	*	*I'V	*I'V	*I'V	*I'V
*clefF4	*	*clefF4	*clefGv2	*clefG2	*clefG2
*Trd0c0	*	*	*	*	*
*k[b-e-]	*	*k[b-e-]	*k[b-e-]	*k[b-e-]	*k[b-e-]
*M4/4	*	*M4/4	*M4/4	*M4/4	*M4/4
4BB-	.	4B-	4f	4b-	4dd
=2	=2	=2	=2	=2	=2
8E-L	.	8e-L	4e-	4g	4b-
8DJ	.	8dJ	.	.	.
4C	6	4c	4e-	4a	4cc
4BB-	.	4B-	4f	4b-	8ddL
.	.	.	.	.	8ee-J
4AA	6	4A	4c	4f	4ff
=3	=3	=3	=3	=3	=3
4GG	6	4G	4B-	4g	2ee-
4AA	6 5	4A	4c	4f	.
4BB-;	.	4B-;	4B-;	4f;	4dd;
8BB-L	.	8BB-L	4B-	8fL	8ddL
8CJ	.	8CJ	.	8e-J	8ee-J
=4	=4	=4	=4	=4	=4
8DL	6	8DL	4B-	8dL	4ff
8C	.	8C	.	8e-	.
8D	.	8D	4B-	8f	4ff
8E-J	.	8E-J	.	8gJ	.
4F	.	4F	4f	4a	4cc
4D	.	4D	4f	4a	4dd
=5	=5	=5	=5	=5	=5
2G	7	2G	4f	2g	2b-
.	nr6	.	4en	.	.
4F;	.	4F;	4A;	4c;	4cc;
4D	5	4D	4A	4d	4f
=6	=6	=6	=6	=6	=6
8GGL	5_	4G	4B-	4d	4b-
8GJ	.	.	.	.	.
8FL	5	8FL	4A	4f	4cc
8E-J	.	8E-J	.	.	.
8DL	6	8DL	4B-	4f	4dd
8CJ	.	8CJ	.	.	.
4BB-	.	4BB-	4B-	4f	8ddL
.	.	.	.	.	8ee-J
=7	=7	=7	=7	=7	=7
2.F;	.	2.F;	2.A;	2.f;	2.cc;
4F#X	6	4F#X	4d	4a	4dd
=8	=8	=8	=8	=8	=8
!!linebreak:original
4G	.	4G	4d	4g	4b-
4A	6	4A	4c	4f	4cc
4B-	.	4B-	8B-L	4f	8ddL
.	.	.	8cJ	.	8ee-J
4Bn	6 5	4Bn	4d	4g	4ff
=9	=9	=9	=9	=9	=9
4c	9	4c	4d	2g	2ee-
4C	8	4C	4c	.	.
4G;	n	4G;	4Bn;	4g;	4dd;
4B-	5	4B-	4B-X	4f	8ddL
.	.	.	.	.	8ee-J
=10	=10	=10	=10	=10	=10
8AL	6	8AL	8cL	8fL	4ff
8GJ	.	8GJ	8B-J	8gJ	.
8FL	.	8FL	8AL	8aL	4ff
8GJ	.	8GJ	8GJ	8b-J	.
4A	6	4A	8FL	8ccL	4cc
.	.	.	8GJ	8b-J	.
4F	6	4F	4A	8aL	4dd
.	.	.	.	8gJ	.
=11	=11	=11	=11	=11	=11
4D	6 5	4D	4d	4f	2b-
4En	6 5	4En	4c	4g	.
4F;	.	4F;	4c;	4f;	4a;
4E-X	6 4 2	4E-X	4A	4c	4f
=12	=12	=12	=12	=12	=12
4D	6	4D	4B-	4f	4b-
4C	6 3	4C	4E-	8gL	4cc
.	.	.	.	8aJ	.
4BB-	.	4BB-	8FL	4b-	4dd
.	.	.	8GJ	.	.
4C	6 3	4C	4A	8aL	4ee-
.	.	.	.	8gJ	.
=13	=13	=13	=13	=13	=13
8DL	6	8DL	4B-	4f	4dd
8E-J	.	8E-J	.	.	.
4F	8	4F	4A	8fL	4cc
.	7	.	.	8e-J	.
4BB-;	.	4BB-;	4F;	4d;	4b-;
=||	=||	=||	=||	=||	=||
*-	*-	*-	*-	*-	*-
!!!system-decoration: s1,s2,s3,s4,s5
